UI/Discovery-Sharing/SVG/calendar-add_solid_24px.svg

<svg width="24" height="24" viewBox="0 0 24 24" fill="none" xmlns="http://www.w3.org/2000/svg">
<path d="M20 16H18V14H16V16H14V18H16V20H18V18H20V16ZM18 4V2H16V4H8V2H6V4H2V20C2 20.5304 2.21071 21.0391 2.58579 21.4142C2.96086 21.7893 3.46957 22 4 22H14V20H12V14H14V12H20V14H22V4H18ZM9 18H6V16H9V18ZM9 14H6V12H9V14ZM9 10H6V8H9V10ZM14 10H11V8H14V10ZM18 10H16V8H18V10ZM20 22C20.5304 22 21.0391 21.7893 21.4142 21.4142C21.7893 21.0391 22 20.5304 22 20H20V22Z" fill="#0F1621"/>
</svg>

<svg xmlns="http://www.w3.org/2000/svg" width="24" height="24" viewBox="0 0 24 24"><rect width="24" height="24" style="fill:none"/><path d="M20,16H18V14H16v2H14v2h2v2h2V18h2ZM18,4V2H16V4H8V2H6V4H2V20a2,2,0,0,0,2,2H14V20H12V14h2V12h6v2h2V4ZM9,18H6V16H9Zm0-4H6V12H9Zm0-4H6V8H9Zm5,0H11V8h3Zm4,0H16V8h2Zm2,12a2,2,0,0,0,2-2H20Z"/></svg>
